!!!!SEGMENT: pl-wnifc--13846--099_anonim--piesni-polskie-i-ruskie-ludu-galicyjskiego-99-wyjde-ja-na-brzeg-strumienia.krn
!!!cenid: 18xx:3321
!!!COM: Anonim
!!!COM-rismID: pe30004985
!!!CDT:
!!!CNT:
!!!GTL: Pieśni polskie i ruskie ludu galicyjskiego
!!!OTL: 99. Wyjdę ja na brzég strumienia
!!!PDT: 1833
!!!AGN:
!!!SMS-siglum: PL-Wnifc
!!!SMS-shelfmark: 13846
!!!SMS-shelfwork: 099 G
!!!NIFC-rismSourceID: 1001036701
!!!NIFC-rismChildID: 1001039200
!!!NIFC-islandoraID: nifc:210326
!!!URL-pdf-islandora: https://repozytorium.nifc.pl/islandora/object/nifc%3A210326/datastream/PDF/view
!!!URL-scan:
!!!ONB-nifc:
!!!AIN: 1 piano 1 soprn
!!!key: c
!!!OMD: Allegretto ma quasi Andante.
**kern	**kern	**dynam	**kern	**text
*group2	*group2	*	*group1	*
*part2	*part2	*part2	*part1	*part1
*staff3	*staff2	*	*staff1	*staff1
*I"[Piano]	*I"[Piano]	*	*I"[Soprano]	*
*Ipiano	*Ipiano	*	*Isoprn	*
*ICklav	*ICklav	*	*ICvox	*
*IGacmp	*IGacmp	*	*IGsolo	*
*clefF4	*clefG2	*	*clefG2	*
*k[b-e-a-]	*k[b-e-a-]	*	*k[b-e-a-]	*
*c:	*c:	*	*c:	*
*M6/8	*M6/8	*	*M6/8	*
=1-	=1-	=1-	=1-	=1-
*^	*	*	*	*
!	!	!	!	!LO:TX:b:B:rj:t=E.112.	!
*ped	*	*	*	*	*
8r	2.BBB-/ 2.BB-/	4b-\ 4bb-\	.	4b-\	Wyj-
8A-\L 8B-\ 8d\ 8f\	.	.	.	.	.
8A-\J 8B-\ 8d\ 8f\	.	8b-\ 8bb-\	.	8b-\	-dę;
4A-\ 4B-\ 4d\ 4f\	.	8b-\L 8bb-\	.	(>8b-\L	ja
.	.	8cc\ 8ccc\	.	8cc\J)	.
*Xped	*	*	*	*	*
8r	.	8dd\J 8ddd\	.	8dd\	na
=2	=2	=2	=2	=2	=2
*ped	*	*	*	*	*
8r	2.BBB-/ 2.BB-/	4ee-\ 4eee-\	.	4ee-\	brzég
8G\L 8B-\ 8e-\	.	.	.	.	.
8G\J 8B-\ 8e-\	.	8ee-\ 8eee-\	.	8ee-\	stru-
4G\ 4B-\ 4e-\	.	8ee-\L 8eee-\	.	(>8ee-\L	-mie-
.	.	8ff\ 8fff\	.	8ff\J)	.
*Xped	*	*	*	*	*
8r	.	8gg\J 8ggg\	.	8gg\	-nia,
!!LO:LB:g=original
=3	=3	=3	=3	=3	=3
*ped	*	*	*	*	*
8r	2.BBB-/ 2.BB-/	4ff\ 4fff\	.	4ff\	co
8A-\L 8B-\ 8d\ 8f\	.	.	.	.	.
8A-\J 8B-\ 8d\ 8f\	.	8dd\ 8ddd\	.	8dd\	pły-
4A-\ 4B-\ 4d\ 4f\	.	(>8b-\L 8bb-\	.	(>8b-\L	-nie
.	.	8cc\) 8ccc\	.	8cc\)	.
!	!	!	!	!LO:TX:a:t=|:problem	!
8r	.	8dd\J 8ddd\	.	8dd\J	bli-
=4	=4	=4	=4	=4	=4
8r	4EE-/ 4E-/	4ee-\ 4eee-\	.	4ee-\	-sko
8G/L 8B-/ 8e-/	.	.	.	.	.
8G/J 8B-/ 8e-/	2ryy	8ee-\ 8eee-\	.	8ee-\	méj
!	!	!	!LO:HP:b=2	!	!
(>\8E-L (>8G\	.	8ee-\L 8eee-\	<	(>\8ee-L	lu-
8F\) 8A-\	.	8dd\ 8ddd\	.	8dd\)	.
!	!	!	!	!LO:TX:a:t=|:problem	!
8F#X^<\J) 8An\ 8e-X\)	.	8cc\J 8ccc\	[	8cc\J	-béj,
!!LO:LB:g=original
=5	=5	=5	=5	=5	=5
8r	2.GGG/ 2.GG/	4dd\ 4ddd\	.	4dd\	niech
8G\L 8Bn\ 8d\ 8f\	.	.	.	.	.
8G\J 8B\ 8d\ 8f\	.	8bn\ 8bbn\	.	8bn\	za
4G\ 4B\ 4d\ 4f\	.	(>8g\L 8gg\	.	(<8g/L	nie-
.	.	8an\) 8aan\	.	8an/J)	.
*Xped	*	*	*	*	*
8r	.	8b'>\J 8bb\	.	8b/	-sie
=6	=6	=6	=6	=6	=6
*ped	*	*	*	*	*
8r	2.GGG/ 2.GG/	(>8cc\L 8ccc\	<	(>8cc\L	me
8G\L 8c\ 8e-\	.	8dd\) 8ddd\	.	8dd\J)	.
8G\J 8c\ 8e-\	.	8ee-\J 8eee-\	[	8ee-\	west-
4G\ 4c\ 4e-\	.	8ee-\L (<\8eee-	>	(>8ee-\L	-chnie-
.	.	8dd\ 8ddd\)	.	8dd\J)	.
8r	.	8cc\J 8bb-\	]	8cc\	-nia,
*Xped	*	*	*	*	*
!!LO:LB:g=original
=7	=7	=7	=7	=7	=7
*ped	*	*	*	*Xped	*
8r	2.GGG/ 2.GG/	4bn\ 4bbn\	.	4bn\	téj
8G\L 8Bn\ 8d\ 8f\	.	.	.	.	.
8G\J 8B\ 8d\ 8f\	.	8dd\ 8ddd\	.	8dd\	co
4G\ 4B\ 4d\ 4f\	.	4gg\ 4ggg\	>	4gg\	źrò-
*Xped	*	*	*	*	*
8r	.	8b\ 8bb\	]	8b\	-dłem
=8	=8	=8	=8	=8	=8
*ped	*	*	*	*	*
8r	2.CC/ 2.C/	4cc\ 4ccc\	.	4cc\	jest
8G\L 8c\ 8e-\	.	.	.	.	.
8G\J 8c\ 8e-\	.	8cc\ 8ccc\	.	(>16cc\LL	mej
.	.	.	.	16bn\JJ)	.
4G\ 4c\ 4e-\	.	4cc\ 4ccc\	.	4cc\	zgu-
8r	.	8r	.	8cc\	-by.
*v	*v	*	*	*	*
==	==	==	==	==
*-	*-	*-	*-	*-
!!!system-decoration: g1,[{g2}]
!!!RDF**kern: > = above
!!!RDF**kern: < = below
!!!ENC: Jędrzej Mróz
!!!END: 2021-11-11
!!!YEC: Copyright 2022 Narodowy Instytut Fryderyka Chopina (https://polishscores.org)
!!!YEM: License CC-BY-4.0 (https://creativecommons.org/licenses/by/4.0)
